app/dist/common/images/zenvia.svg

<svg height="18" viewBox="0 0 18 18" width="18" xmlns="http://www.w3.org/2000/svg"><path d="m0 0h18v18h-18z" fill="#181b1e"/><g fill="#f0f3fa"><path d="m4 4h10v10h-10zm.31.32h9.36v9.36h-9.37v-9.36z" fill-rule="evenodd"/><path d="m5 5h2v1.36h-1.67v.3h5.67v-1.66h2v4.33h-7.67v2.5l.84.84.83-.84v-.83h6v2h-.33v-1.67h-5.34v.67l-1 1h-.33l-1-1v-3h7.67v-3.67h-1.34v1.67h-6.33v-1h1.67v-.67h-1.67z"/><path d="m8 12.67h2.67v-1.67h.33v2h-3z"/><path d="m9 11v1.67h-.33v-1.67zm2 1h1.67v.33h-1.67zm-1-6.67h-1.67v1.67h-.33v-2h2z"/><path d="m9.67 6.33h-1.67v-.33h1.67z"/></g></svg>

<!-- by TradingView --><svg width="18" height="18" viewBox="0 0 18 18" xmlns="http://www.w3.org/2000/svg"><path fill="#181B1E" d="M0 0h18v18H0z"/><path fill-rule="evenodd" d="M4 4h10v10H4V4Zm.31.32h9.36v9.36H4.3V4.32Z" fill="#F0F3FA"/><path d="M5 5h2v1.36H5.33v.3H11V5h2v4.33H5.33v2.5l.84.84.83-.84V11h6v2h-.33v-1.67H7.33V12l-1 1H6l-1-1V9h7.67V5.33h-1.34V7H5V6h1.67v-.67H5V5Z" fill="#F0F3FA"/><path d="M8 12.67h2.67V11H11v2H8v-.33Z" fill="#F0F3FA"/><path d="M9 11v1.67h-.33V11H9ZM11 12h1.67v.33H11V12ZM10 5.33H8.33V7H8V5h2v.33Z" fill="#F0F3FA"/><path d="M9.67 6.33H8V6h1.67v.33Z" fill="#F0F3FA"/></svg>
